img/logo/vk.svg

<svg width="15" height="10" viewBox="0 0 15 10" fill="none" xmlns="http://www.w3.org/2000/svg">
<path fill-rule="evenodd" clip-rule="evenodd" d="M14.5028 1.41632C14.6042 1.09781 14.5028 0.86377 14.0201 0.86377H12.4239C12.018 0.86377 11.8309 1.06595 11.7294 1.28889C11.7294 1.28889 10.9177 3.15215 9.76783 4.36246C9.3958 4.71281 9.22668 4.82428 9.02375 4.82428C8.9223 4.82428 8.77543 4.71281 8.77543 4.39432V1.41632C8.77543 1.03411 8.65765 0.86377 8.3194 0.86377H5.81111C5.55748 0.86377 5.40495 1.04116 5.40495 1.20928C5.40495 1.57161 5.97987 1.65517 6.03914 2.6744V4.88801C6.03914 5.37333 5.94607 5.46132 5.74314 5.46132C5.20202 5.46132 3.88576 3.58974 3.10509 1.44816C2.9521 1.03191 2.79865 0.86377 2.39071 0.86377H0.794522C0.338469 0.86377 0.247253 1.06595 0.247253 1.28889C0.247253 1.68703 0.788396 3.66177 2.7669 6.27349C4.0859 8.05709 5.94428 9.02393 7.63532 9.02393C8.64994 9.02393 8.77546 8.80919 8.77546 8.4393V7.09126C8.77546 6.66178 8.87158 6.57607 9.19287 6.57607C9.42961 6.57607 9.83547 6.68754 10.7825 7.5475C11.8647 8.5667 12.0432 9.02393 12.6519 9.02393H14.2481C14.7042 9.02393 14.9322 8.80919 14.8006 8.38541C14.6567 7.96305 14.14 7.35025 13.4543 6.62384C13.0823 6.20979 12.5242 5.7639 12.3551 5.5409C12.1184 5.25429 12.186 5.12686 12.3551 4.87208C12.3551 4.87208 14.2998 2.29219 14.5028 1.41632Z" fill="black"/>
</svg>

<svg width="15" height="10" fill="none" xmlns="http://www.w3.org/2000/svg"><path fill-rule="evenodd" clip-rule="evenodd" d="M14.503 1.416c.101-.318 0-.552-.483-.552h-1.596c-.406 0-.593.202-.695.425 0 0-.811 1.863-1.961 3.073-.372.35-.541.462-.744.462-.102 0-.249-.111-.249-.43V1.416c0-.382-.117-.552-.456-.552H5.811c-.254 0-.406.177-.406.345 0 .363.575.446.634 1.465v2.214c0 .485-.093.573-.296.573-.541 0-1.857-1.871-2.638-4.013-.153-.416-.306-.584-.714-.584H.795c-.457 0-.548.202-.548.425 0 .398.541 2.373 2.52 4.984 1.319 1.784 3.177 2.75 4.868 2.75 1.015 0 1.14-.214 1.14-.584V7.091c0-.43.097-.515.418-.515.237 0 .642.112 1.59.972 1.082 1.019 1.26 1.476 1.869 1.476h1.596c.456 0 .684-.215.553-.639-.144-.422-.661-1.035-1.347-1.761-.372-.414-.93-.86-1.099-1.083-.237-.287-.169-.414 0-.669 0 0 1.945-2.58 2.148-3.456Z" fill="#000"/></svg>
